teeny/solid/phonecall.svg

<svg width="15" height="15" viewBox="0 0 15 15" fill="none" xmlns="http://www.w3.org/2000/svg">
<path d="M15 0H11V1L13.2929 1L8.14645 6.14645L8.85355 6.85355L14 1.70711V4H15V0Z" fill="black"/>
<path d="M2.5 0C1.11929 0 0 1.11929 0 2.5V4.5C0 10.299 4.70101 15 10.5 15H12.5C13.8807 15 15 13.8807 15 12.5V11.118C15 10.5499 14.679 10.0305 14.1708 9.77639L11.7549 8.56843C10.9384 8.1602 9.94971 8.56975 9.66105 9.43573L9.36328 10.329C9.25014 10.6684 8.90197 10.8705 8.55114 10.8003C6.35528 10.3612 4.63885 8.64472 4.19967 6.44886C4.12951 6.09803 4.33156 5.74986 4.67097 5.63672L5.7796 5.26718C6.52319 5.01932 6.95058 4.24075 6.76048 3.48035L6.17444 1.1362C6.0075 0.468446 5.40752 0 4.71922 0H2.5Z" fill="black"/>
</svg>

<svg viewBox="0 0 15 15" xmlns="http://www.w3.org/2000/svg"><g><path d="M15 0h-4v1h2.29L8.14 6.14l.7.7 5.14-5.15v2.29h1v-4Z"/><path d="M2.5 0C1.11 0 0 1.11 0 2.5v2C0 10.29 4.7 15 10.5 15h2c1.38 0 2.5-1.12 2.5-2.5v-1.39c0-.57-.33-1.09-.83-1.35l-2.42-1.21c-.82-.41-1.81 0-2.1.86l-.3.89c-.12.33-.47.54-.82.47 -2.2-.44-3.92-2.16-4.36-4.36 -.08-.36.13-.7.47-.82l1.1-.37c.74-.25 1.17-1.03.98-1.79l-.59-2.35C5.96.41 5.36-.06 4.67-.06H2.45Z"/></g></svg>
